packages/components/src/components/icon/common/ic-email-changed.svg

<svg width="120" height="120" viewBox="0 0 120 120" fill="none" xmlns="http://www.w3.org/2000/svg"><path fill-rule="evenodd" clip-rule="evenodd" d="M6 36C2.68629 36 0 38.6863 0 42V114C0 117.314 2.68629 120 6 120H90C93.3137 120 96 117.314 96 114V42C96 38.6863 93.3137 36 90 36H6ZM14.6602 55.7332C14.8801 55.2181 15.2365 54.7806 15.6868 54.4732C16.1371 54.1658 16.6622 54.0015 17.199 54H78.801C79.3378 54.0015 79.8629 54.1658 80.3132 54.4732C80.7635 54.7806 81.1199 55.2181 81.3398 55.7332L49.707 81.7982C49.2205 82.2011 48.6192 82.4201 48 82.4201C47.3808 82.4201 46.7795 82.2011 46.293 81.7982L14.6602 55.7332ZM14.4 63.0891V92.8528L32.361 77.8839L14.4 63.0891ZM15.6816 101.502C16.1331 101.812 16.6598 101.979 17.199 101.983L78.801 102C79.3402 101.996 79.8669 101.828 80.3184 101.518C80.7699 101.208 81.1272 100.768 81.3477 100.25L59.0817 81.6655L53.1525 86.5501C51.6923 87.7608 49.887 88.4192 48.0276 88.4192C46.1682 88.4192 44.3629 87.7608 42.9026 86.5501L36.9735 81.6655L14.6523 100.234C14.8728 100.751 15.2301 101.191 15.6816 101.502ZM81.6 92.8445V63.0891L63.639 77.8839L81.6 92.8445Z" fill="#85ACB0"/><g style="mix-blend-mode:multiply"><path d="M90 60C106.569 60 120 46.5685 120 30C120 13.4315 106.569 0 90 0C73.4315 0 60 13.4315 60 30C60 46.5685 73.4315 60 90 60Z" fill="#FF444F"/></g><path d="M76 38.1675V44H81.8325L99.0346 26.7979L93.2021 20.9654L76 38.1675ZM103.545 22.2875C104.152 21.6809 104.152 20.701 103.545 20.0944L99.9056 16.4549C99.299 15.8484 98.3191 15.8484 97.7125 16.4549L94.8663 19.3012L100.699 25.1337L103.545 22.2875Z" fill="white"/></svg>

<svg width="120" height="120" fill="none" xmlns="http://www.w3.org/2000/svg"><path fill-rule="evenodd" clip-rule="evenodd" d="M6 36a6 6 0 0 0-6 6v72a6 6 0 0 0 6 6h84a6 6 0 0 0 6-6V42a6 6 0 0 0-6-6H6Zm8.66 19.733a2.9 2.9 0 0 1 1.027-1.26c.45-.307.975-.471 1.512-.473h61.602a2.693 2.693 0 0 1 1.512.473 2.9 2.9 0 0 1 1.027 1.26L49.707 81.798A2.674 2.674 0 0 1 48 82.42c-.62 0-1.22-.219-1.707-.622L14.66 55.733Zm-.26 7.356v29.764l17.961-14.97L14.4 63.09Zm1.282 38.413c.451.31.978.477 1.517.481l61.602.017a2.715 2.715 0 0 0 1.517-.482c.452-.31.81-.75 1.03-1.268L59.082 81.665l-5.93 4.885a8.024 8.024 0 0 1-5.124 1.87 8.024 8.024 0 0 1-5.125-1.87l-5.93-4.885-22.32 18.569c.22.517.577.957 1.029 1.268ZM81.6 92.845V63.088L63.639 77.884 81.6 92.844Z" fill="#85ACB0"/><path d="M90 60c16.569 0 30-13.431 30-30 0-16.569-13.431-30-30-30-16.569 0-30 13.431-30 30 0 16.569 13.431 30 30 30Z" fill="#FF444F" style="mix-blend-mode:multiply"/><path d="M76 38.167V44h5.832l17.203-17.202-5.833-5.833L76 38.167Zm27.545-15.88a1.548 1.548 0 0 0 0-2.193l-3.64-3.64a1.55 1.55 0 0 0-2.192 0l-2.847 2.847 5.833 5.833 2.846-2.846Z" fill="#fff"/></svg>
